src/assets/images/connectors/portis.svg

<svg width="67" height="100" viewBox="0 0 67 100" fill="none" xmlns="http://www.w3.org/2000/svg">
<path d="M0.988632 57.4889L3.41078 56.4508L33.0697 43.5492L65.1508 57.4889L53.0895 82.4024L23.6283 86.5546L1.48295 62.6298L0.988632 57.4889Z" fill="#133444"/>
<path d="M58.4775 42.1651C53.1883 35.7884 45.6747 31.6362 37.4691 30.5487C37.2714 30.5487 37.1231 30.4993 36.9254 30.4993C34.3549 30.2027 31.7845 30.2027 29.214 30.4993C29.0163 30.4993 28.868 30.5487 28.6703 30.5487C20.4647 31.6362 12.9511 35.7884 7.66189 42.1651L6.32723 44.3895L4.10282 48.0969L2.47157 50.8156C2.47157 50.9145 2.42214 50.9639 2.37271 51.0133V51.0628L5.93178 53.1883L28.6703 66.6337L33.0697 69.2041V37.0736L28.6703 39.0509V34.256L33.0697 32.2788L37.4691 34.256L59.8122 44.3895L58.4775 42.1651Z" fill="#C42370"/>
<path d="M66.1394 65.4968C66.09 76.0257 61.3445 85.9614 53.1883 92.6347C50.0742 95.1557 46.5645 97.133 42.7583 98.4182C39.6441 99.4563 36.3816 100 33.1191 100C14.8295 100 0.0494385 83.737 0.0494385 65.4968C0.0494385 62.778 0.395459 60.1087 1.03807 57.4889L33.1191 76.4706L65.2002 57.4889C65.7934 60.1087 66.1394 62.778 66.1394 65.4968Z" fill="#1C4D6B"/>
<path d="M29.214 30.4498L33.0697 32.2294L28.6703 34.2066V30.2521L29.214 30.4498Z" fill="black"/>
<path d="M28.6703 39.0509L33.0697 37.0242V69.1547L28.6703 66.5843V39.0509Z" fill="black"/>
<path d="M33.0697 37.0242V69.1547L63.8161 51.0133L33.0697 37.0242Z" fill="#1D4259"/>
<path d="M33.0697 0V37.0242L63.8161 51.0133L33.0697 0Z" fill="#4B6B9A"/>
<path d="M33.0697 37.0242V69.1547L28.6703 66.5843L2.37271 51.0133C2.37271 50.9145 2.42214 50.865 2.47157 50.8156L6.32723 44.4389L28.6703 34.3055V39.1498L33.0697 37.0242Z" fill="#343535"/>
<path d="M33.0697 37.0242V69.1547L28.6703 66.5843L2.37272 51.0133H2.32329L2.37272 50.9639L28.6703 39.0509L33.0697 37.0242Z" fill="#3E5578"/>
<path d="M33.0697 0V37.0242L2.32329 51.0133L33.0697 0Z" fill="#6DB2D8"/>
<path d="M20.6129 97.3801C21.0578 97.5779 21.5521 97.7756 21.997 97.9733C21.5521 97.7756 21.1073 97.5779 20.6129 97.3801Z" fill="#335F8A"/>
<path d="M21.997 97.9239C22.4419 98.1216 22.9362 98.2699 23.4306 98.4182C22.9362 98.2699 22.4914 98.1216 21.997 97.9239Z" fill="#335F8A"/>
<path d="M24.6663 98.8136C25.0618 98.9125 25.4078 99.0114 25.7538 99.1102L24.6663 98.8136Z" fill="#335F8A"/>
<path d="M0.988631 57.4889L33.0697 76.4706C32.6248 79.3376 31.8833 82.1552 30.7464 84.8739C28.176 91.1023 22.9857 97.6273 12.9511 92.6347C4.79486 85.9614 0.0494315 75.9763 0 65.4473C0 62.778 0.346021 60.1087 0.988631 57.4889Z" fill="#6DB2D8"/>
<path d="M53.0895 92.6841C52.8918 92.8324 53.0895 92.6841 52.4469 93.2279L52.1503 93.4256L51.7054 93.7222L51.1617 94.1176C51.7054 93.7222 50.7168 94.4142 50.519 94.5625C50.3213 94.6614 50.173 94.7603 49.9753 94.9086L49.6293 95.1557C49.5304 95.2051 49.3821 95.304 49.2833 95.4029C49.2833 95.4029 49.135 95.5512 49.0855 95.5512C49.2833 95.4029 48.8384 95.65 48.6407 95.7983C48.3935 95.8972 48.1958 95.996 47.998 96.1443L47.306 96.4904L47.0094 96.6387C46.8117 96.7375 46.9105 96.6387 46.7128 96.787C46.5151 96.9352 46.2679 96.9847 46.0208 97.133C45.7736 97.2813 46.0208 97.133 45.1804 97.5284C46.0208 97.133 45.1804 97.5284 44.7356 97.7261C45.1804 97.5284 43.9447 98.0227 43.4009 98.2205C43.2032 98.2699 42.1157 98.6159 41.918 98.6654C41.7202 98.7148 41.4731 98.8136 41.2754 98.8631C40.8799 98.9619 40.5339 99.0608 40.1879 99.1597C40.0396 99.2091 39.8913 99.2091 39.7924 99.2585L39.5452 99.308L38.9521 99.4563C38.7543 99.5057 38.606 99.5057 38.4083 99.5551C38.2106 99.6045 38.0623 99.6045 37.914 99.654C37.7657 99.7034 37.5186 99.7034 37.3703 99.7528C37.2714 99.7528 37.1725 99.7528 37.1231 99.8023L36.7276 99.8517H36.5299C36.3816 99.8517 36.2333 99.9011 36.085 99.9011C35.9367 99.9011 35.6896 99.9506 35.4919 99.9506H30.4498C30.2521 99.9506 30.0544 99.9011 29.8567 99.9011C29.7084 99.9011 29.5601 99.9011 29.4118 99.8517H29.2141C29.0658 99.8517 28.9175 99.8023 28.8186 99.8023C28.7197 99.8023 28.6209 99.8023 28.5714 99.7528C28.3737 99.7528 28.2254 99.7034 28.0277 99.654C27.8794 99.654 27.6817 99.6045 27.5334 99.5551C27.3851 99.5057 27.1874 99.5057 26.9896 99.4563L26.3965 99.308L26.1493 99.2585C26.001 99.2585 25.8527 99.2091 25.7538 99.1597C25.3584 99.0608 25.0124 98.9619 24.6664 98.8631L24.0237 98.6654C23.826 98.6159 23.6283 98.5665 23.4306 98.4676C22.9362 98.3193 22.4914 98.1216 21.9971 97.9733C21.5027 97.825 21.0579 97.5779 20.613 97.3801C20.4152 97.2813 20.1681 97.1824 19.9209 97.0835C19.6738 96.9847 19.4266 96.8858 19.2289 96.7375C18.9817 96.6387 18.784 96.5398 18.5863 96.3915C18.3885 96.2926 18.1414 96.1443 17.9437 96.0455C17.7459 95.9466 17.5976 95.8477 17.4494 95.7489C16.955 95.4523 16.6584 95.2546 16.955 95.4523L16.6584 95.2546L16.1147 94.9086L15.917 94.8097L15.4227 94.4637C15.2249 94.3154 15.0272 94.2165 14.8295 94.0682C14.6318 93.9199 14.3846 93.7716 14.1869 93.6233C13.9891 93.475 13.7914 93.2773 13.6431 93.1784L13.4454 93.0302C13.2477 92.9313 13.0994 92.783 12.9511 92.6347C22.9857 97.6273 28.1266 91.0035 30.697 84.8245C31.7845 82.1058 32.5754 79.2882 33.0203 76.4212C33.4652 79.3376 34.2066 82.2046 35.3436 84.9234C38.0129 91.0529 43.0549 97.6273 53.0895 92.6841Z" fill="#529BBA"/>
<path d="M40.3856 99.1102C40.781 99.0114 41.127 98.9125 41.4731 98.8136L40.3856 99.1102Z" fill="#335F8A"/>
<path d="M42.7088 98.4182C43.2031 98.2699 43.648 98.1216 44.1423 97.9239C43.648 98.1216 43.2031 98.2699 42.7088 98.4182Z" fill="#335F8A"/>
<path d="M44.0435 97.9733C44.4884 97.7756 45.0816 97.5779 45.5265 97.3307C45.0321 97.5779 44.4884 97.7756 44.0435 97.9733Z" fill="#335F8A"/>
<path d="M66.1394 65.4968C66.09 76.0257 61.3445 85.9614 53.1883 92.6347C43.1537 97.6273 37.9634 91.0529 35.393 84.8739C34.3055 82.1552 33.5146 79.3376 33.0697 76.4706L65.1508 57.4889C65.7934 60.1087 66.1394 62.778 66.1394 65.4968Z" fill="#4B6B9A"/>
</svg>

<svg width="67" height="100" fill="none" xmlns="http://www.w3.org/2000/svg"><path d="M.989 57.489 3.41 56.45 33.07 43.549l32.08 13.94-12.06 24.913-29.462 4.153L1.483 62.63l-.494-5.141Z" fill="#133444"/><path d="M58.477 42.165A32.937 32.937 0 0 0 37.47 30.55c-.198 0-.346-.05-.544-.05a33.526 33.526 0 0 0-7.711 0c-.198 0-.346.05-.544.05A32.937 32.937 0 0 0 7.662 42.165L6.327 44.39l-2.224 3.708-1.631 2.719c0 .098-.05.148-.1.197v.05l3.56 2.125L28.67 66.634l4.4 2.57v-32.13l-4.4 1.977v-4.795l4.4-1.977 4.4 1.977 22.342 10.133-1.334-2.224Z" fill="#C42370"/><path d="M66.14 65.497a35.258 35.258 0 0 1-12.952 27.138c-3.114 2.52-6.623 4.498-10.43 5.783A30.533 30.533 0 0 1 33.12 100C14.83 100 .05 83.737.05 65.497c0-2.719.346-5.388.99-8.008l32.08 18.982L65.2 57.489c.593 2.62.94 5.289.94 8.008Z" fill="#1C4D6B"/><path d="m29.214 30.45 3.856 1.78-4.4 1.977v-3.955l.544.198ZM28.67 39.05l4.4-2.026v32.13l-4.4-2.57V39.051Z" fill="#000"/><path d="M33.07 37.024v32.13l30.746-18.14-30.746-13.99Z" fill="#1D4259"/><path d="M33.07 0v37.024l30.746 13.99L33.07 0Z" fill="#4B6B9A"/><path d="M33.07 37.024v32.13l-4.4-2.57-26.297-15.57c0-.1.05-.149.099-.198l3.855-6.377L28.67 34.306v4.844l4.4-2.126Z" fill="#343535"/><path d="M33.07 37.024v32.13l-4.4-2.57-26.297-15.57h-.05l.05-.05L28.67 39.05l4.4-2.027Z" fill="#3E5578"/><path d="M33.07 0v37.024L2.323 51.014 33.07 0Z" fill="#6DB2D8"/><path d="M20.613 97.38c.445.198.94.396 1.384.593-.445-.197-.89-.395-1.384-.593ZM21.997 97.924c.445.198.94.346 1.434.494a16.42 16.42 0 0 1-1.434-.494ZM24.666 98.814c.396.099.742.197 1.088.296l-1.088-.296Z" fill="#335F8A"/><path d="m.989 57.489 32.08 18.982c-.444 2.867-1.186 5.684-2.323 8.403-2.57 6.228-7.76 12.753-17.795 7.76A35.358 35.358 0 0 1 0 65.448c0-2.669.346-5.338.989-7.958Z" fill="#6DB2D8"/><path d="M53.09 92.684c-.198.148 0 0-.643.544l-.297.198-.445.296-.543.396c.543-.396-.445.296-.643.445a3.327 3.327 0 0 0-.544.346l-.346.247c-.099.05-.247.148-.346.247 0 0-.148.148-.197.148.197-.148-.248.099-.445.247a2.665 2.665 0 0 0-.643.346l-.692.346-.297.149c-.197.099-.099 0-.296.148-.198.148-.445.198-.692.346-.247.148 0 0-.84.395.84-.395 0 0-.445.198.444-.198-.791.297-1.335.495-.198.049-1.285.395-1.483.444-.198.05-.445.149-.643.198-.395.099-.741.198-1.087.297-.148.05-.297.05-.396.099l-.247.049-.593.148c-.198.05-.346.05-.544.1-.197.049-.346.049-.494.098-.148.05-.395.05-.544.099-.099 0-.197 0-.247.05l-.395.049h-.198c-.148 0-.297.05-.445.05-.148 0-.395.049-.593.049H30.45c-.198 0-.396-.05-.593-.05-.149 0-.297 0-.445-.05h-.198c-.148 0-.296-.049-.395-.049-.1 0-.198 0-.248-.05-.197 0-.346-.049-.543-.098-.149 0-.346-.05-.495-.099-.148-.05-.346-.05-.543-.099l-.593-.148-.248-.05a.932.932 0 0 1-.395-.098c-.396-.1-.742-.198-1.088-.297l-.642-.198c-.198-.05-.396-.099-.593-.197-.495-.149-.94-.346-1.434-.495-.494-.148-.94-.395-1.384-.593a9.742 9.742 0 0 0-.692-.296c-.247-.1-.494-.198-.692-.347a2.66 2.66 0 0 1-.643-.346c-.197-.098-.445-.247-.642-.346-.198-.098-.346-.197-.495-.296-.494-.297-.79-.494-.494-.297l-.297-.197-.543-.346-.198-.1-.494-.345c-.198-.149-.396-.248-.594-.396-.197-.148-.444-.296-.642-.445-.198-.148-.396-.346-.544-.445l-.198-.148c-.197-.099-.346-.247-.494-.395 10.035 4.992 15.176-1.632 17.746-7.81a38.579 38.579 0 0 0 2.323-8.404c.445 2.917 1.187 5.784 2.324 8.502 2.669 6.13 7.71 12.704 17.745 7.761Z" fill="#529BBA"/><path d="M40.386 99.11c.395-.099.741-.198 1.087-.296l-1.087.296ZM42.709 98.418ZM44.044 97.973c.444-.197 1.038-.395 1.483-.642-.495.247-1.039.445-1.483.642Z" fill="#335F8A"/><path d="M66.14 65.497a35.258 35.258 0 0 1-12.952 27.138c-10.034 4.992-15.225-1.582-17.795-7.761a38.579 38.579 0 0 1-2.323-8.403l32.08-18.982c.643 2.62.99 5.289.99 8.008Z" fill="#4B6B9A"/></svg>
